; generated by PrusaSlicer 2.2.0+win64 on 2020-06-06 at 12:53:56 UTC

; 

; external perimeters extrusion width = 0.45mm
; perimeters extrusion width = 0.45mm
; infill extrusion width = 0.45mm
; solid infill extrusion width = 0.45mm
; top infill extrusion width = 0.40mm
; first layer extrusion width = 0.42mm

M73 P0 R34
M73 Q0 S34
M201 X1000 Y1000 Z200 E5000 ; sets maximum accelerations, mm/sec^2
M203 X200 Y200 Z12 E120 ; sets maximum feedrates, mm/sec
M204 P1250 R1250 T1250 ; sets acceleration (P, T) and retract acceleration (R), mm/sec^2
M205 X8.00 Y8.00 Z0.40 E4.50 ; sets the jerk limits, mm/sec
M205 S0 T0 ; sets the minimum extruding and travel feed rate, mm/sec
M107
; M862.3 P "MK3S" ; printer model check
M862.1 P0.4 ; nozzle diameter check
M115 U3.8.1 ; tell printer latest fw version
G90 ; use absolute coordinates
M83 ; extruder relative mode
M104 S215 ; set extruder temp
M140 S60 ; set bed temp
M190 S60 ; wait for bed temp
M109 S215 ; wait for extruder temp
G28 W ; home all without mesh bed level
G80 ; mesh bed leveling
G1 Y-3.0 F1000.0 ; go outside print area
G92 E0.0
G1 X60.0 E9.0 F1000.0 ; intro line
M73 Q0 S34
M73 P0 R34
G1 X100.0 E12.5 F1000.0 ; intro line
G92 E0.0
M221 S95
G21 ; set units to millimeters
G90 ; use absolute coordinates
M83 ; use relative distances for extrusion
M900 K0.06 ; Filament gcode LA 1.5
M900 K30 ; Filament gcode LA 1.0
;BEFORE_LAYER_CHANGE
G92 E0.0
;0.2


G1 E-0.80000 F2100.00000
G1 Z0.600 F10800.000
;AFTER_LAYER_CHANGE
;0.2
G1 X145.140 Y116.515
G1 Z0.200
G1 E0.80000 F2100.00000
M204 S1000
G1 F1200.000
G1 X144.648 Y117.251 E0.02777
G1 X144.239 Y117.611 E0.01707
G1 X143.768 Y117.883 E0.01707
G1 X143.252 Y118.057 E0.01707
G1 X142.716 Y118.127 E0.01694
G1 X117.771 Y118.128 E0.78212
G1 X116.558 Y118.075 E0.03808
G1 X115.280 Y117.901 E0.04042
G1 X114.180 Y117.647 E0.03540
G1 X112.783 Y117.176 E0.04622
G1 X111.768 Y116.719 E0.03493
G1 X110.713 Y116.116 E0.03809
G1 X109.725 Y115.422 E0.03787
G1 X108.815 Y114.641 E0.03758
G1 X107.959 Y113.754 E0.03866
G1 X107.261 Y112.878 E0.03512
G1 X106.478 Y111.684 E0.04478
G1 X105.638 Y109.975 E0.05969
G1 X105.230 Y108.840 E0.03784
G1 X104.928 Y107.688 E0.03734
G1 X104.702 Y106.285 E0.04454
G1 X104.631 Y105.171 E0.03502
G1 X104.663 Y103.967 E0.03777
G1 X104.840 Y102.618 E0.04263
G1 X105.085 Y101.550 E0.03438
G1 X105.457 Y100.416 E0.03740
G1 X105.946 Y99.293 E0.03840
G1 X106.488 Y98.311 E0.03517
G1 X107.290 Y97.133 E0.04468
G1 X108.549 Y95.701 E0.05979
G1 X109.443 Y94.885 E0.03795
G1 X110.399 Y94.161 E0.03760
G1 X111.605 Y93.421 E0.04437
G1 X112.606 Y92.928 E0.03498
G1 X113.738 Y92.497 E0.03798
G1 X114.894 Y92.178 E0.03759
G1 X115.981 Y91.985 E0.03463
G1 X117.409 Y91.871 E0.04491
G1 X119.669 Y92.022 E0.07103
G1 X121.070 Y92.318 E0.04489
G1 X122.856 Y92.928 E0.05917
G1 X124.007 Y93.475 E0.03997
G1 X125.046 Y94.091 E0.03787
G1 X144.510 Y108.263 E0.75490
G1 X144.874 Y108.678 E0.01733
G1 X145.149 Y109.158 E0.01733
G1 X145.322 Y109.683 E0.01733
G1 X145.387 Y110.235 E0.01745
G1 X145.372 Y115.660 E0.17009
G1 X145.156 Y116.457 E0.02589
G1 F8640.000
G1 X144.648 Y117.251 E-0.21772
G1 X144.239 Y117.611 E-0.12571
G1 X143.768 Y117.883 E-0.12571
G1 X143.252 Y118.057 E-0.12571
G1 X142.716 Y118.127 E-0.12476
G1 X142.541 Y118.127 E-0.04039
G1 E-0.04000 F2100.00000
G1 Z0.800 F10800.000
G1 X143.621 Y117.536
G1 Z0.200
G1 E0.80000 F2100.00000
G1 F1200.000
G1 X142.695 Y117.750 E0.02977
G1 X116.584 Y117.699 E0.81870
G1 X115.348 Y117.530 E0.03912
G1 X114.267 Y117.280 E0.03479
G1 X112.938 Y116.832 E0.04396
G1 X111.941 Y116.384 E0.03428
G1 X110.918 Y115.800 E0.03695
G1 X109.959 Y115.126 E0.03676
G1 X109.086 Y114.379 E0.03601
G1 X108.242 Y113.504 E0.03811
G1 X107.559 Y112.647 E0.03437
G1 X106.808 Y111.503 E0.04291
G1 X105.990 Y109.840 E0.05812
G1 X105.590 Y108.727 E0.03707
G1 X105.295 Y107.605 E0.03639
G1 X105.078 Y106.257 E0.04280
G1 X105.008 Y105.163 E0.03437
G1 X105.039 Y103.993 E0.03670
G1 X105.208 Y102.702 E0.04081
G1 X105.448 Y101.653 E0.03375
G1 X105.808 Y100.553 E0.03632
G1 X106.285 Y99.459 E0.03740
G1 X106.818 Y98.495 E0.03454
G1 X107.586 Y97.366 E0.04282
G1 X108.808 Y95.974 E0.05808
G1 X109.682 Y95.177 E0.03708
G1 X110.616 Y94.469 E0.03673
G1 X111.774 Y93.757 E0.04264
G1 X112.754 Y93.275 E0.03423
G1 X113.856 Y92.855 E0.03698
G1 X114.978 Y92.546 E0.03649
G1 X116.045 Y92.357 E0.03398
G1 X117.407 Y92.248 E0.04285
G1 X119.621 Y92.396 E0.06956
G1 X120.963 Y92.679 E0.04299
G1 X122.702 Y93.272 E0.05762
G1 X123.831 Y93.808 E0.03919
G1 X124.856 Y94.416 E0.03735
G1 X144.241 Y108.528 E0.75181
G1 X144.801 Y109.304 E0.03001
G1 X145.010 Y110.238 E0.03001
G1 X145.000 Y115.594 E0.16794
G1 X144.805 Y116.339 E0.02414
G1 X144.386 Y116.980 E0.02402
G1 X143.669 Y117.501 E0.02778
G1 F8640.000
G1 X142.695 Y117.750 E-0.23209
G1 X140.409 Y117.745 E-0.52791
G1 E-0.04000 F2100.00000
G1 Z0.800 F10800.000
G1 X141.846 Y114.587
G1 Z0.200
G1 E0.80000 F2100.00000
G1 F1200.000
G1 X117.793 Y114.587 E0.75417
G1 X116.830 Y114.544 E0.03022
G1 X115.914 Y114.416 E0.02901
G1 X115.032 Y114.210 E0.02840
G1 X114.186 Y113.925 E0.02798
G1 X113.380 Y113.564 E0.02770
G1 X112.618 Y113.130 E0.02749
G1 X111.901 Y112.626 E0.02748
G1 X111.233 Y112.053 E0.02759
G1 X110.619 Y111.414 E0.02779
G1 X110.061 Y110.710 E0.02816
G1 X109.560 Y109.940 E0.02882
G1 X109.230 Y109.326 E0.02185
G1 X108.935 Y108.682 E0.02220
G1 X108.613 Y107.788 E0.02980
G1 X108.379 Y106.893 E0.02902
G1 X108.232 Y105.999 E0.02839
G1 X108.173 Y105.109 E0.02799
G1 X108.196 Y104.225 E0.02772
G1 X108.304 Y103.356 E0.02744
G1 X108.497 Y102.501 E0.02751
G1 X108.771 Y101.665 E0.02756
G1 X109.127 Y100.852 E0.02785
G1 X109.564 Y100.067 E0.02816
G1 X110.084 Y99.308 E0.02885
G1 X110.522 Y98.770 E0.02175
G1 X111.006 Y98.251 E0.02224
G1 X111.708 Y97.609 E0.02983
G1 X112.445 Y97.052 E0.02896
G1 X113.217 Y96.574 E0.02847
G1 X114.016 Y96.178 E0.02796
G1 X114.840 Y95.864 E0.02766
G1 X115.685 Y95.630 E0.02749
G1 X116.549 Y95.481 E0.02749
G1 X117.427 Y95.413 E0.02760
G1 X118.311 Y95.431 E0.02775
G1 X119.206 Y95.533 E0.02823
G1 X120.105 Y95.725 E0.02883
G1 X120.771 Y95.924 E0.02179
G1 X121.433 Y96.171 E0.02216
G1 X122.345 Y96.603 E0.03161
G1 X123.185 Y97.104 E0.03068
G1 X123.956 Y97.674 E0.03008
G1 X124.654 Y98.309 E0.02958
G1 X125.277 Y99.003 E0.02924
G1 X125.824 Y99.754 E0.02913
G1 X126.292 Y100.557 E0.02914
G1 X126.677 Y101.410 E0.02934
G1 X126.981 Y102.307 E0.02968
G1 X127.198 Y103.263 E0.03075
G1 X127.773 Y106.480 E0.10245
G1 X128.123 Y107.587 E0.03640
G1 X128.484 Y108.447 E0.02926
G1 X128.823 Y109.069 E0.02221
G1 X129.218 Y109.635 E0.02165
G1 X129.530 Y109.991 E0.01483
G1 X129.876 Y110.311 E0.01478
G1 X130.263 Y110.586 E0.01490
G1 X130.695 Y110.811 E0.01524
G1 X131.146 Y110.963 E0.01494
G1 X131.422 Y111.023 E0.00885
G1 X131.899 Y111.066 E0.01501
G1 X141.846 Y111.066 E0.31190
G1 X141.846 Y114.527 E0.10849
G1 X142.223 Y114.964 F10800.000
G1 F1200.000
G1 X117.785 Y114.964 E0.76626
G1 X116.796 Y114.920 E0.03104
G1 X115.845 Y114.787 E0.03011
G1 X114.929 Y114.573 E0.02950
G1 X114.049 Y114.276 E0.02910
G1 X113.209 Y113.901 E0.02884
G1 X112.416 Y113.449 E0.02863
G1 X111.669 Y112.925 E0.02861
G1 X110.974 Y112.328 E0.02873
G1 X110.335 Y111.662 E0.02892
G1 X109.754 Y110.931 E0.02928
G1 X109.235 Y110.132 E0.02987
G1 X108.892 Y109.494 E0.02272
G1 X108.586 Y108.825 E0.02307
G1 X108.252 Y107.900 E0.03083
G1 X108.010 Y106.971 E0.03010
G1 X107.857 Y106.042 E0.02951
G1 X107.795 Y105.116 E0.02911
G1 X107.820 Y104.197 E0.02884
G1 X107.932 Y103.291 E0.02860
G1 X108.133 Y102.400 E0.02865
G1 X108.418 Y101.531 E0.02868
G1 X108.789 Y100.684 E0.02898
G1 X109.243 Y99.868 E0.02927
G1 X109.782 Y99.082 E0.02989
G1 X110.237 Y98.522 E0.02264
G1 X110.740 Y97.983 E0.02311
G1 X111.466 Y97.319 E0.03085
G1 X112.231 Y96.741 E0.03006
G1 X113.033 Y96.244 E0.02957
G1 X113.864 Y95.832 E0.02909
G1 X114.722 Y95.505 E0.02879
G1 X115.603 Y95.262 E0.02863
G1 X116.502 Y95.106 E0.02862
G1 X117.416 Y95.035 E0.02874
G1 X118.337 Y95.055 E0.02888
G1 X119.267 Y95.161 E0.02935
G1 X120.199 Y95.360 E0.02987
G1 X120.891 Y95.566 E0.02266
G1 X121.580 Y95.824 E0.02307
G1 X122.522 Y96.269 E0.03267
G1 X123.394 Y96.789 E0.03183
G1 X124.196 Y97.383 E0.03126
G1 X124.922 Y98.043 E0.03078
G1 X125.570 Y98.766 E0.03044
G1 X126.140 Y99.548 E0.03033
G1 X126.627 Y100.384 E0.03036
G1 X127.028 Y101.271 E0.03053
G1 X127.344 Y102.204 E0.03088
G1 X127.567 Y103.188 E0.03163
G1 X128.139 Y106.389 E0.10196
G1 X128.477 Y107.456 E0.03510
G1 X128.825 Y108.283 E0.02813
G1 X129.144 Y108.870 E0.02096
G1 X129.516 Y109.402 E0.02035
G1 X129.800 Y109.728 E0.01355
G1 X130.114 Y110.017 E0.01339
G1 X130.461 Y110.264 E0.01333
G1 X130.843 Y110.463 E0.01351
G1 X131.247 Y110.599 E0.01337
G1 X131.479 Y110.650 E0.00745
G1 X131.916 Y110.689 E0.01374
G1 X142.223 Y110.689 E0.32319
G1 X142.223 Y114.904 E0.13214
G1 X141.827 Y114.911 F10800.000
G1 F8640.000
G1 X138.932 Y114.912 E-0.76000
G1 E-0.04000 F2100.00000
G1 Z0.800 F10800.000
G1 X141.733 Y111.951
G1 Z0.200
G1 E0.80000 F2100.00000
G1 F1200.000
G1 X141.131 Y111.349 E0.02698
G1 X140.592 Y111.349 E0.01710
G1 X141.563 Y112.320 E0.04355
G1 X141.563 Y112.859 E0.01710
G1 X140.053 Y111.349 E0.06773
G1 X139.514 Y111.349 E0.01710
G1 X141.563 Y113.399 E0.09191
G1 X141.563 Y113.938 E0.01710
G1 X138.974 Y111.349 E0.11609
G1 X138.435 Y111.349 E0.01710
G1 X141.390 Y114.304 E0.13249
G1 X140.851 Y114.304 E0.01710
G1 X137.896 Y111.349 E0.13249
G1 X137.357 Y111.349 E0.01710
G1 X140.311 Y114.304 E0.13249
G1 X139.772 Y114.304 E0.01710
G1 X136.817 Y111.349 E0.13249
G1 X136.278 Y111.349 E0.01710
G1 X139.233 Y114.304 E0.13249
G1 X138.693 Y114.304 E0.01710
G1 X135.739 Y111.349 E0.13249
G1 X135.199 Y111.349 E0.01710
G1 X138.154 Y114.304 E0.13249
G1 X137.615 Y114.304 E0.01710
G1 X134.660 Y111.349 E0.13249
G1 X134.121 Y111.349 E0.01710
G1 X137.076 Y114.304 E0.13249
G1 X136.536 Y114.304 E0.01710
G1 X133.582 Y111.349 E0.13249
G1 X133.042 Y111.349 E0.01710
G1 X135.997 Y114.304 E0.13249
G1 X135.458 Y114.304 E0.01710
G1 X132.503 Y111.349 E0.13249
G1 X131.964 Y111.349 E0.01710
G1 X134.918 Y114.304 E0.13249
G1 X134.379 Y114.304 E0.01710
G1 X131.379 Y111.304 E0.13453
G1 X131.070 Y111.236 E0.01001
G1 X130.620 Y111.084 E0.01507
G1 X133.840 Y114.304 E0.14437
G1 X133.301 Y114.304 E0.01710
G1 X115.086 Y96.089 E0.81676
G1 X114.684 Y96.226 E0.01348
G1 X132.761 Y114.304 E0.81062
G1 X132.222 Y114.304 E0.01710
G1 X114.293 Y96.375 E0.80395
G1 X113.920 Y96.541 E0.01295
G1 X131.683 Y114.304 E0.79650
G1 X131.144 Y114.304 E0.01710
G1 X113.560 Y96.720 E0.78848
G1 X113.211 Y96.910 E0.01260
G1 X130.604 Y114.304 E0.77993
G1 X130.065 Y114.304 E0.01710
G1 X112.878 Y97.117 E0.77068
G1 X112.550 Y97.328 E0.01237
G1 X129.526 Y114.304 E0.76122
G1 X128.986 Y114.304 E0.01710
G1 X112.242 Y97.560 E0.75082
G1 X111.935 Y97.792 E0.01221
G1 X128.447 Y114.304 E0.74041
G1 X127.908 Y114.304 E0.01710
G1 X111.650 Y98.046 E0.72903
G1 X111.368 Y98.303 E0.01210
G1 X127.369 Y114.304 E0.71748
G1 X126.829 Y114.304 E0.01710
G1 X111.095 Y98.570 E0.70552
G1 X110.835 Y98.849 E0.01210
G1 X126.290 Y114.304 E0.69302
G1 X125.751 Y114.304 E0.01710
G1 X110.586 Y99.139 E0.68000
G1 X110.344 Y99.436 E0.01215
G1 X125.212 Y114.304 E0.66667
G1 X124.672 Y114.304 E0.01710
G1 X110.122 Y99.753 E0.65246
G1 X109.903 Y100.073 E0.01230
G1 X124.133 Y114.304 E0.63811
G1 X123.594 Y114.304 E0.01710
G1 X109.698 Y100.408 E0.62311
G1 X109.505 Y100.754 E0.01257
G1 X123.054 Y114.304 E0.60758
G1 X122.515 Y114.304 E0.01710
G1 X109.322 Y101.111 E0.59159
G1 X109.158 Y101.486 E0.01298
G1 X121.976 Y114.304 E0.57476
G1 X121.437 Y114.304 E0.01710
G1 X109.002 Y101.869 E0.55759
G1 X108.869 Y102.275 E0.01355
G1 X120.897 Y114.304 E0.53938
G1 X120.358 Y114.304 E0.01710
G1 X108.744 Y102.690 E0.52077
G1 X108.645 Y103.130 E0.01430
G1 X119.819 Y114.304 E0.50104
G1 X119.280 Y114.304 E0.01710
G1 X108.561 Y103.585 E0.48065
G1 X108.501 Y104.064 E0.01533
G1 X118.740 Y114.304 E0.45914
M73 Q3 S33
G1 X118.201 Y114.304 E0.01710
G1 X108.470 Y104.573 E0.43635
M73 P3 R33
G1 X108.456 Y105.098 E0.01667
G1 X117.655 Y114.297 E0.41250
G1 X117.091 Y114.272 E0.01791
G1 X108.494 Y105.675 E0.38550
G1 X108.513 Y105.967 E0.00927
G1 X108.566 Y106.286 E0.01026
G1 X116.490 Y114.211 E0.35534
G1 X115.851 Y114.111 E0.02051
G1 X108.685 Y106.945 E0.32134
G1 X108.875 Y107.674 E0.02391
G1 X115.147 Y113.946 E0.28123
G1 X114.339 Y113.678 E0.02698
G1 X109.175 Y108.513 E0.23158
G1 X109.483 Y109.200 E0.02387
G1 X109.671 Y109.548 E0.01254
G1 X113.337 Y113.215 E0.16440
G1 X112.770 Y112.891 E0.02071
G1 X112.075 Y112.403 E0.02693
G1 X111.448 Y111.865 E0.02620
G1 X110.015 Y110.431 E0.06426
G1 F8640.000
G1 X111.448 Y111.865 E-0.46796
G1 X112.075 Y112.403 E-0.19083
G1 X112.433 Y112.655 E-0.10121
G1 E-0.04000 F2100.00000
G1 Z0.800 F10800.000
G1 X128.870 Y109.334
G1 Z0.200
G1 E0.80000 F2100.00000
G1 F1200.000
G1 X115.509 Y95.973 E0.59913
G1 X115.947 Y95.872 E0.01427
G1 X127.928 Y107.852 E0.53720
G1 X127.857 Y107.684 E0.00577
G1 X127.652 Y107.038 E0.02150
G1 X116.407 Y95.792 E0.50426
G1 X116.892 Y95.738 E0.01547
G1 X127.453 Y106.299 E0.47358
G1 X127.336 Y105.642 E0.02115
G1 X117.392 Y95.699 E0.44587
G1 X117.939 Y95.706 E0.01733
G1 X127.218 Y104.986 E0.41610
G1 X127.101 Y104.329 E0.02115
G1 X118.510 Y95.739 E0.38521
G1 X119.119 Y95.808 E0.01943
G1 X126.984 Y103.672 E0.35264
G1 X126.847 Y102.997 E0.02185
G1 X119.800 Y95.949 E0.31602
G1 X120.035 Y96.000 E0.00763
G1 X120.540 Y96.150 E0.01668
G1 X126.675 Y102.285 E0.27512
G1 X126.390 Y101.461 E0.02765
G1 X121.395 Y96.466 E0.22399
G1 X122.211 Y96.852 E0.02864
G1 X122.482 Y97.014 E0.00999
G1 X126.285 Y100.817 E0.17054
M106 S255
;BEFORE_LAYER_CHANGE
G92 E0.0
;0.4


G1 F8640.000
G1 X123.958 Y98.489 E-0.76000
G1 E-0.04000 F2100.00000
G1 Z0.800 F10800.000
;AFTER_LAYER_CHANGE
;0.4
M104 S210 ; set temperature
G1 X145.140 Y116.515
G1 Z0.400
G1 E0.80000 F2100.00000
G1 F3000.000
G1 X144.648 Y117.251 E0.02777
G1 X144.239 Y117.611 E0.01707
G1 X143.768 Y117.883 E0.01707
G1 X143.252 Y118.057 E0.01707
G1 X142.716 Y118.127 E0.01694
G1 X117.771 Y118.128 E0.78212
G1 X116.558 Y118.075 E0.03808
G1 X115.280 Y117.901 E0.04042
G1 X114.180 Y117.647 E0.03540
G1 X112.783 Y117.176 E0.04622
G1 X111.768 Y116.719 E0.03493
G1 X110.713 Y116.116 E0.03809
G1 X109.725 Y115.422 E0.03787
G1 X108.815 Y114.641 E0.03758
G1 X107.959 Y113.754 E0.03866
G1 X107.261 Y112.878 E0.03512
G1 X106.478 Y111.684 E0.04478
G1 X105.638 Y109.975 E0.05969
G1 X105.230 Y108.840 E0.03784
G1 X104.928 Y107.688 E0.03734
G1 X104.702 Y106.285 E0.04454
G1 X104.631 Y105.171 E0.03502
G1 X104.663 Y103.967 E0.03777
G1 X104.840 Y102.618 E0.04263
G1 X105.085 Y101.550 E0.03438
G1 X105.457 Y100.416 E0.03740
G1 X105.946 Y99.293 E0.03840
G1 X106.488 Y98.311 E0.03517
G1 X107.290 Y97.133 E0.04468
G1 X108.549 Y95.701 E0.05979
G1 X109.443 Y94.885 E0.03795
G1 X110.399 Y94.161 E0.03760
G1 X111.605 Y93.421 E0.04437
G1 X112.606 Y92.928 E0.03498
G1 X113.738 Y92.497 E0.03798
G1 X114.894 Y92.178 E0.03759
G1 X115.981 Y91.985 E0.03463
G1 X117.409 Y91.871 E0.04491
G1 X119.669 Y92.022 E0.07103
G1 X121.070 Y92.318 E0.04489
G1 X122.856 Y92.928 E0.05917
G1 X124.007 Y93.475 E0.03997
G1 X125.046 Y94.091 E0.03787
G1 X144.510 Y108.263 E0.75490
G1 X144.874 Y108.678 E0.01733
G1 X145.149 Y109.158 E0.01733
G1 X145.322 Y109.683 E0.01733
G1 X145.387 Y110.235 E0.01745
G1 X145.372 Y115.660 E0.17009
G1 X145.156 Y116.457 E0.02589
G1 F8640.000
G1 X144.648 Y117.251 E-0.21772
G1 X144.239 Y117.611 E-0.12571
G1 X143.768 Y117.883 E-0.12571
G1 X143.252 Y118.057 E-0.12571
G1 X142.716 Y118.127 E-0.12476
G1 X142.541 Y118.127 E-0.04039
G1 E-0.04000 F2100.00000
G1 Z1.000 F10800.000
G1 X143.621 Y117.536
G1 Z0.400
G1 E0.80000 F2100.00000
G1 F3000.000
G1 X142.695 Y117.750 E0.02977
G1 X116.584 Y117.699 E0.81870
G1 X115.348 Y117.530 E0.03912
G1 X114.267 Y117.280 E0.03479
G1 X112.938 Y116.832 E0.04396
G1 X111.941 Y116.384 E0.03428
G1 X110.918 Y115.800 E0.03695
G1 X109.959 Y115.126 E0.03676
G1 X109.086 Y114.379 E0.03601
G1 X108.242 Y113.504 E0.03811
G1 X107.559 Y112.647 E0.03437
G1 X106.808 Y111.503 E0.04291
G1 X105.990 Y109.840 E0.05812
G1 X105.590 Y108.727 E0.03707
G1 X105.295 Y107.605 E0.03639
G1 X105.078 Y106.257 E0.04280
